!!!SOCIAL_FUNCTION:	love songs
!!!PDT:	1909
!!!OTL: No_164.krn
!!!REG: Great_Lakes
!!!LANG: Non-Tone
!!!LING_GROUP: Algonquin
**kern
*staff1
=1-
*clefF4
*k[b-e-a-d-g-c-]
*M3/4
4d-\
8.d-\L
16d-\Jk
8.A-\L
16A-\Jk
=2
4e-\
8f\L
8e-\J
8d-\L
16A-\L
16A-\JJ
=3||
*M2/4
4G-\
8A-\L
8G-\J
=4
16E-\LK
[8.D-\J
8.D-\L]
16D-\Jk
=5
4A-\
8.d-\L
16A-\Jk
=6
4.G-\
8A-\
=7
4.G-\
16A-\LL
16G-\JJ
=8
16E-\LK
[8.D-\J
8.D-\L]
16D-\Jk
=9||
*M3/4
4d-\
8.d-\L
16c-\Jk
8.A-\L
16A-\Jk
=10
4d-\
12e-\L
12d-\
12c-\J
8A-\L
16G-\L
16E-\JJ
=11
4G-\
8.d-\L
16A-\Jk
8.G-\L
16G-\Jk
=12
16E-\LK
[8.D-\J
4D-\]
8r
8D-\
=13||
*M2/4
16c-\LK
[8.B-\J
8.B-\L]
16B-\Jk
=14
16B-\LK
8.A-\J
8.A-\L
16G-\Jk
=15||
*M3/4
4B-\
8.d-\L
16B-\Jk
8.A-\L
16A-\Jk
=16||
*M2/4
8.G-\L
16E-\Jk
8.G-\L
16E-\Jk
=17
4.D-\
8D-\
=18
4B-\
8.d-\L
16B-\Jk
=19
4.A-\
8A-\
=20
4G-\
8A-\L
8G-\J
=21
16E-\LK
[8.D-\J
8.D-\L]
16D-\Jk
=22||
*M3/4
4A-\
8.d-\L
16B-\Jk
8.A-\L
16A-\Jk
=23||
*M2/4
8.G-\L
16E-\Jk
8.G-\L
16E-\Jk
=24
4..D-\
16D-\
=25||
*M3/4
4A-\
8.B-\L
16B-\Jk
8.A-\L
16A-\Jk
=26
4d-\
8.d-\L
16B-\Jk
8.A-\L
16A-\Jk
=27||
*M2/4
8.G-\L
16E-\Jk
8.G-\L
16E-\Jk
=28
2D-\
==
*-
